X:8931
T:La galette
A:Normandie
O:France
M:2/4
L:1/16
Q:1/4=80
K:F
FGAG F2C2|FGAB c4|
FGAG F2C2|FGAB c4|
|:F2c2 c2c2|dcBA B2B2|
G2B2 B2B2|1cBAG A4:|2cBAG F4||
